svg/fluentui-system-icons/ic_fluent_fingerprint_20_regular.svg

<svg width="20" height="20" viewBox="0 0 20 20" fill="none" xmlns="http://www.w3.org/2000/svg">
<path d="M6.71744 3.95017C8.25365 3.20861 11.5343 2.51268 15.2271 4.91879C15.4585 5.06954 15.7683 5.00419 15.919 4.77282C16.0698 4.54146 16.0044 4.23169 15.773 4.08094C11.7362 1.45069 8.07569 2.1841 6.28272 3.04961C6.03403 3.16966 5.92975 3.46857 6.0498 3.71725C6.16984 3.96594 6.46876 4.07022 6.71744 3.95017ZM4.9091 4.59141C5.06079 4.82216 4.9967 5.13218 4.76595 5.28387C4.2426 5.62792 3.65692 6.36857 3.43128 6.75297C3.29149 6.99111 2.98512 7.07085 2.74697 6.93106C2.50882 6.79127 2.42909 6.4849 2.56888 6.24675C2.83837 5.78763 3.51891 4.90693 4.21663 4.44826C4.44738 4.29657 4.75741 4.36066 4.9091 4.59141ZM10.5001 4.54063C10.2239 4.54063 10.0001 4.76449 10.0001 5.04063C10.0001 5.31677 10.2239 5.54063 10.5001 5.54063C12.1561 5.54063 16.0137 6.91651 17.0091 12.0943C17.0612 12.3654 17.3233 12.543 17.5945 12.4909C17.8657 12.4387 18.0432 12.1766 17.9911 11.9055C16.893 6.19378 12.5684 4.54063 10.5001 4.54063ZM9.34458 10.8021C8.47485 11.5084 7.81837 13.4874 9.90263 17.2579C10.0362 17.4996 9.9486 17.8038 9.70693 17.9374C9.46525 18.071 9.16103 17.9834 9.02744 17.7417C6.87936 13.8557 7.24915 11.2156 8.71417 10.0258C10.1382 8.86938 12.3845 9.37129 12.9967 11.3495C13.0783 11.6129 13.1431 11.9279 13.2079 12.2428L13.2404 12.4005C13.3194 12.7797 13.4077 13.1763 13.538 13.5753C13.7968 14.3679 14.2141 15.1471 15.0192 15.7414C15.2414 15.9054 15.2886 16.2185 15.1246 16.4406C14.9606 16.6628 14.6475 16.71 14.4254 16.546C13.3982 15.7878 12.886 14.8 12.5874 13.8857C12.439 13.4313 12.3416 12.9894 12.2614 12.6043L12.2267 12.4368C12.1608 12.117 12.1073 11.858 12.0415 11.6452C11.6522 10.3876 10.2553 10.0624 9.34458 10.8021ZM15.4993 11.9727C15.4843 11.6969 15.2486 11.4856 14.9729 11.5006C14.6972 11.5156 14.4858 11.7513 14.5008 12.027C14.5992 13.8352 15.7169 14.7729 16.3468 14.9758C16.6096 15.0604 16.8913 14.916 16.976 14.6532C17.0607 14.3903 16.9162 14.1086 16.6534 14.0239C16.4257 13.9506 15.5757 13.3756 15.4993 11.9727ZM11.0001 12.4999C11.0001 12.2237 10.7762 11.9999 10.5001 11.9999C10.2239 11.9999 10.0001 12.2237 10.0001 12.4999C10.0001 13.5449 10.1286 14.3511 10.4369 15.1377C10.7406 15.9125 11.209 16.642 11.8416 17.5382C12.0008 17.7638 12.3128 17.8176 12.5384 17.6583C12.764 17.4991 12.8178 17.1871 12.6586 16.9615C12.0307 16.0721 11.6242 15.4266 11.3679 14.7728C11.1164 14.1309 11.0001 13.4548 11.0001 12.4999ZM7.96872 8.78971C6.25295 10.1182 5.26697 12.9319 6.947 16.2754C7.07098 16.5221 6.97146 16.8227 6.72472 16.9467C6.47797 17.0706 6.17744 16.9711 6.05346 16.7244C4.18336 13.0026 5.2208 9.65273 7.35649 7.99903C8.41721 7.1777 9.74616 6.78293 11.0827 6.99962C12.4253 7.21731 13.7196 8.0426 14.7255 9.55612C14.8784 9.7861 14.8159 10.0964 14.5859 10.2493C14.3559 10.4022 14.0456 10.3396 13.8927 10.1097C13.0177 8.79309 11.9516 8.15356 10.9226 7.98673C9.88753 7.81891 8.83374 8.11991 7.96872 8.78971ZM8.4556 5.79392C8.71515 5.69965 8.84914 5.41282 8.75487 5.15326C8.6606 4.89371 8.37377 4.75972 8.11421 4.85399C3.43327 6.55412 2.32309 11.04 2.75596 14.0706C2.79501 14.344 3.04827 14.5339 3.32163 14.4949C3.595 14.4559 3.78496 14.2026 3.74591 13.9292C3.35474 11.1905 4.36802 7.27853 8.4556 5.79392Z" fill="#212121"/>
</svg>

<svg xmlns="http://www.w3.org/2000/svg" width="20" height="20"><path d="M6.717 3.95c1.537-.741 4.817-1.437 8.51.969a.5.5 0 1 0 .546-.838c-4.037-2.63-7.697-1.897-9.49-1.031a.5.5 0 1 0 .434.9Zm-1.808.641a.5.5 0 0 1-.143.693c-.523.344-1.11 1.085-1.335 1.469a.5.5 0 0 1-.862-.506c.27-.46.95-1.34 1.648-1.799a.5.5 0 0 1 .692.143Zm5.591-.05a.5.5 0 1 0 0 1c1.656 0 5.514 1.376 6.51 6.553a.5.5 0 0 0 .981-.188c-1.098-5.712-5.423-7.365-7.49-7.365Zm-1.155 6.261c-.87.706-1.527 2.685.558 6.456a.5.5 0 0 1-.876.484c-2.148-3.886-1.778-6.526-.313-7.716 1.424-1.157 3.67-.655 4.283 1.324.081.263.146.578.21.893l.033.157c.08.38.168.776.298 1.175.259.793.676 1.572 1.481 2.166a.5.5 0 1 1-.594.805c-1.027-.758-1.539-1.746-1.838-2.66a11.873 11.873 0 0 1-.326-1.282l-.034-.167a8.995 8.995 0 0 0-.186-.792c-.389-1.257-1.786-1.583-2.696-.843Zm6.154 1.17a.5.5 0 1 0-.998.055c.098 1.808 1.216 2.746 1.846 2.949a.5.5 0 0 0 .306-.952c-.227-.073-1.077-.648-1.154-2.051ZM11 12.5a.5.5 0 1 0-1 0c0 1.045.129 1.851.437 2.638.304.774.772 1.504 1.405 2.4a.5.5 0 1 0 .817-.576c-.628-.89-1.035-1.535-1.291-2.19-.252-.641-.368-1.317-.368-2.272ZM7.97 8.79c-1.716 1.328-2.702 4.142-1.022 7.485a.5.5 0 0 1-.894.45c-1.87-3.722-.832-7.072 1.303-8.726 1.061-.821 2.39-1.216 3.727-1 1.342.218 2.637 1.044 3.643 2.557a.5.5 0 1 1-.833.554c-.875-1.317-1.941-1.956-2.97-2.123-1.035-.168-2.09.133-2.954.803Zm.487-2.996a.5.5 0 0 0-.342-.94c-4.68 1.7-5.79 6.186-5.358 9.217a.5.5 0 0 0 .99-.142c-.391-2.739.622-6.65 4.71-8.135Z"/></svg>
